images/services/5.svg

<svg width="33" height="33" viewBox="0 0 33 33" fill="none" xmlns="http://www.w3.org/2000/svg">
<g clip-path="url(#clip0_1_693)">
<path d="M30.8708 22.3521V14.9004H27.0391C26.9092 14.5358 26.7565 14.1723 26.5835 13.812L29.2964 11.0985L25.2699 7.07199L23.9515 7.11936V13.3037L22.723 14.5321C23.4975 15.7079 23.9515 17.113 23.9515 18.6262C23.9515 20.9166 22.9162 22.9636 21.2902 24.3305V24.4811H21.0996C19.8323 25.478 18.2377 26.0779 16.4999 26.0779C14.7621 26.0779 13.1674 25.478 11.9001 24.4811H11.7096V24.3305C10.0835 22.9636 9.04826 20.9166 9.04826 18.6262C9.04826 17.162 9.47673 15.801 10.2059 14.6492L8.17855 12.8752C7.71655 12.4712 7.45149 11.8868 7.45149 11.2731V7.71389L7.07518 7.7272L3.70386 11.0985L6.41678 13.812C6.24379 14.1723 6.09103 14.5358 5.96116 14.9004H2.12891V22.3521H5.96063C6.0905 22.7156 6.24273 23.0791 6.41624 23.44L3.70333 26.154L8.97162 31.4223L11.6856 28.7093C12.0465 28.8829 12.41 29.0351 12.7735 29.165V32.9972H20.2251V29.1655C20.5887 29.0356 20.9522 28.8834 21.3131 28.7099L24.0271 31.4228L29.2954 26.1545L26.5824 23.4405C26.756 23.0797 26.9082 22.7161 27.038 22.3526H30.8708V22.3521Z" fill="#FFC94F"/>
<path d="M31.9355 4.25526C32.5226 4.25526 33 3.77782 33 3.19074V1.05958L32.7647 0.900967C31.886 0.309628 30.8625 -0.00280762 29.8065 -0.00280762C27.8882 -0.00280762 26.153 1.00848 25.2019 2.65848H24.4839C24.4839 1.48432 23.529 0.52945 22.3548 0.52945C21.7161 0.52945 21.1487 0.817934 20.7581 1.26503C20.3674 0.817934 19.8 0.52945 19.1613 0.52945C18.5226 0.52945 17.9552 0.817934 17.5645 1.26503C17.1738 0.817934 16.6065 0.52945 15.9677 0.52945C15.329 0.52945 14.7616 0.817934 14.371 1.26503C13.9803 0.817934 13.4129 0.52945 12.7742 0.52945C11.6 0.52945 10.6452 1.48432 10.6452 2.65848H7.79811C6.84697 1.00848 5.11181 -0.00280762 3.19355 -0.00280762C2.13755 -0.00280762 1.11402 0.309628 0.235258 0.900967L0 1.05958V3.19074C0 3.77782 0.477435 4.25526 1.06452 4.25526H3.72581V6.38429H1.06452C0.477435 6.38429 0 6.86172 0 7.44881V9.57997L0.235258 9.73858C1.11402 10.3299 2.13755 10.6424 3.19355 10.6424C4.62266 10.6424 5.94213 10.0723 6.91936 9.10413V11.2731C6.91936 12.0401 7.25095 12.7703 7.82845 13.2765L9.5205 14.7572C8.86529 15.9362 8.51613 17.2668 8.51613 18.6262C8.51613 23.0285 12.0977 26.6101 16.5 26.6101C20.9023 26.6101 24.4839 23.0285 24.4839 18.6262C24.4839 17.2008 24.1102 15.8244 23.3991 14.6087L24.4839 13.524V9.04558V7.98106H25.2019C26.153 9.63106 27.8882 10.6424 29.8065 10.6424C30.8625 10.6424 31.886 10.3299 32.7647 9.73858L33 9.57997V7.44881C33 6.86172 32.5226 6.38429 31.9355 6.38429H29.2742V4.25526H31.9355ZM22.3548 1.59397C22.9419 1.59397 23.4194 2.0714 23.4194 2.65848V3.19074V9.04558C23.4194 9.63266 22.9419 10.1101 22.3548 10.1101C21.7678 10.1101 21.2903 9.63266 21.2903 9.04558V2.65848C21.2903 2.0714 21.7678 1.59397 22.3548 1.59397ZM19.1613 1.59397C19.7484 1.59397 20.2258 2.0714 20.2258 2.65848V9.04558C20.2258 9.63266 19.7484 10.1101 19.1613 10.1101C18.5742 10.1101 18.0968 9.63266 18.0968 9.04558V2.65848C18.0968 2.0714 18.5742 1.59397 19.1613 1.59397ZM15.9677 1.59397C16.5548 1.59397 17.0323 2.0714 17.0323 2.65848V9.04558C17.0323 9.63266 16.5548 10.1101 15.9677 10.1101C15.3807 10.1101 14.9032 9.63266 14.9032 9.04558V2.65848C14.9032 2.0714 15.3807 1.59397 15.9677 1.59397ZM11.7097 2.65848C11.7097 2.0714 12.1871 1.59397 12.7742 1.59397C13.3613 1.59397 13.8387 2.0714 13.8387 2.65848V9.04558C13.8387 9.50971 13.538 9.91156 13.1132 10.0542L11.7097 8.8066V6.65042V2.65848ZM3.19355 9.57784C2.442 9.57784 1.71174 9.37984 1.06452 9.00247V7.44881H4.79032V3.19074H1.06452V1.63708C1.71174 1.25971 2.442 1.06171 3.19355 1.06171C4.81694 1.06171 6.27692 1.96814 7.00345 3.4276L7.15036 3.723H10.6452V4.66084C10.2641 4.40535 9.80686 4.25526 9.31452 4.25526C7.99398 4.25526 6.91936 5.32989 6.91936 6.65042V7.35513C6.16994 8.72729 4.76105 9.57784 3.19355 9.57784ZM9.58065 18.6262C9.58065 17.5245 9.84198 16.444 10.3391 15.4731L11.1774 16.2066V23.0413C10.181 21.8421 9.58065 20.3034 9.58065 18.6262ZM23.4194 18.6262C23.4194 20.3034 22.819 21.8421 21.8226 23.0413V16.1853L22.6146 15.3933C23.1399 16.3849 23.4194 17.4861 23.4194 18.6262ZM20.7581 15.7446V20.7553H19.6936V21.8198H20.7581V24.0691C19.5823 24.9904 18.1064 25.5456 16.5 25.5456C14.8936 25.5456 13.4177 24.9904 12.2419 24.0691V21.8198H18.629V20.7553H12.2419V15.7233L8.52944 12.4744C8.18294 12.1715 7.98387 11.7335 7.98387 11.2731V6.65042C7.98387 5.91643 8.58107 5.31977 9.31452 5.31977C10.048 5.31977 10.6452 5.91643 10.6452 6.65042V9.04558V9.28456L15.6138 13.7012L16.3212 12.906L13.9579 10.8052C14.1118 10.7014 14.2549 10.5843 14.3763 10.4454C14.767 10.8888 15.3317 11.1746 15.9677 11.1746C16.6065 11.1746 17.1738 10.8861 17.5645 10.439C17.9552 10.8861 18.5226 11.1746 19.1613 11.1746C19.8 11.1746 20.3674 10.8861 20.7581 10.439C21.1487 10.8861 21.7161 11.1746 22.3548 11.1746C22.7445 11.1746 23.1048 11.0618 23.4194 10.8787V13.0833L20.7581 15.7446ZM31.9355 7.44881V9.00247C31.2883 9.37984 30.558 9.57784 29.8065 9.57784C28.1831 9.57784 26.7231 8.6714 25.9965 7.21195L25.8496 6.91655H24.4839V3.723H25.8496L25.9965 3.4276C26.7231 1.96814 28.1831 1.06171 29.8065 1.06171C30.558 1.06171 31.2883 1.25971 31.9355 1.63708V3.19074H28.2097V7.44881H31.9355Z" fill="#535353"/>
</g>
<defs>
<clipPath id="clip0_1_693">
<rect width="33" height="33" fill="white" transform="translate(0 -0.00280762)"/>
</clipPath>
</defs>
</svg>

<svg width="33" height="33" fill="none" xmlns="http://www.w3.org/2000/svg"><g clip-path="url(#a)"><path d="M30.87 22.35V14.9h-3.83c-.13-.36-.28-.73-.46-1.09l2.72-2.71-4.03-4.03-1.32.05v6.18l-1.23 1.23a7.42 7.42 0 0 1-1.43 9.8v.15h-.19a7.41 7.41 0 0 1-9.2 0h-.19v-.15a7.43 7.43 0 0 1-1.5-9.68l-2.03-1.77c-.46-.4-.73-1-.73-1.6V7.7l-.37.02L3.7 11.1l2.72 2.71c-.18.36-.33.73-.46 1.09H2.13v7.45h3.83c.13.37.28.73.46 1.09L3.7 26.15l5.27 5.27 2.72-2.71c.36.17.72.33 1.08.45V33h7.46v-3.83c.36-.13.72-.29 1.08-.46l2.72 2.71 5.27-5.27-2.72-2.7c.18-.37.33-.73.46-1.1h3.83Z" fill="#FFC94F"/><path d="M31.94 4.26c.58 0 1.06-.48 1.06-1.07V1.06L32.76.9a5.28 5.28 0 0 0-7.56 1.76h-.72a2.12 2.12 0 0 0-3.73-1.4 2.12 2.12 0 0 0-3.19 0 2.12 2.12 0 0 0-3.19 0 2.12 2.12 0 0 0-3.72 1.4H7.8A5.29 5.29 0 0 0 .24.9L0 1.06v2.13c0 .59.48 1.07 1.06 1.07h2.67v2.12H1.06C.48 6.38 0 6.86 0 7.45v2.13l.24.16a5.28 5.28 0 0 0 6.68-.64v2.17c0 .77.33 1.5.9 2l1.7 1.49A7.97 7.97 0 0 0 16.5 26.6a8 8 0 0 0 6.9-12l1.08-1.09V7.98h.72a5.29 5.29 0 0 0 7.56 1.76l.24-.16V7.45c0-.59-.48-1.07-1.06-1.07h-2.67V4.26h2.67Zm-9.59-2.67c.6 0 1.07.48 1.07 1.07V9.05a1.07 1.07 0 0 1-2.13 0v-6.4c0-.58.48-1.06 1.06-1.06Zm-3.19 0c.59 0 1.07.48 1.07 1.07v6.39a1.07 1.07 0 0 1-2.13 0v-6.4c0-.58.47-1.06 1.06-1.06Zm-3.2 0c.6 0 1.07.48 1.07 1.07v6.39a1.07 1.07 0 0 1-2.13 0v-6.4c0-.58.48-1.06 1.07-1.06Zm-4.25 1.07a1.07 1.07 0 0 1 2.13 0v6.39c0 .46-.3.86-.73 1l-1.4-1.24V2.65ZM3.19 9.58c-.75 0-1.48-.2-2.13-.58V7.45H4.8V3.19H1.06V1.64A4.23 4.23 0 0 1 7 3.44l.15.28h3.5v.94a2.4 2.4 0 0 0-3.73 1.99v.7a4.23 4.23 0 0 1-3.73 2.23Zm6.4 9.05c0-1.1.25-2.19.75-3.16l.84.74v6.83c-1-1.2-1.6-2.74-1.6-4.41Zm13.83 0c0 1.67-.6 3.21-1.6 4.41V16.2l.8-.8c.52 1 .8 2.1.8 3.24Zm-2.66-2.89v5.02h-1.07v1.06h1.07v2.25a6.88 6.88 0 0 1-8.52 0v-2.25h6.39v-1.06h-6.39v-5.04l-3.71-3.25a1.6 1.6 0 0 1-.55-1.2V6.65a1.33 1.33 0 0 1 2.67 0v2.63l4.96 4.42.71-.8-2.36-2.1c.15-.1.3-.22.42-.35a2.12 2.12 0 0 0 3.18-.01 2.12 2.12 0 0 0 3.2 0 2.1 2.1 0 0 0 2.66.44v2.2l-2.66 2.66Zm11.18-8.3V9A4.24 4.24 0 0 1 26 7.2l-.15-.28h-1.37v-3.2h1.37l.15-.3a4.24 4.24 0 0 1 5.94-1.78v1.55H28.2v4.26h3.73Z" fill="#535353"/></g><defs><clipPath id="a"><path fill="#fff" d="M0 0h33v33H0z"/></clipPath></defs></svg>
